dist/svgs/unicons/solid/document-layout-left.svg

<svg xmlns="http://www.w3.org/2000/svg" viewBox="0 0 24 24"><path d="M13 8h8c.6 0 1-.4 1-1s-.4-1-1-1h-8c-.6 0-1 .4-1 1s.4 1 1 1zm8 2h-8c-.6 0-1 .4-1 1s.4 1 1 1h8c.6 0 1-.4 1-1s-.4-1-1-1zM3 12h6c.6 0 1-.4 1-1V5c0-.6-.4-1-1-1H3c-.6 0-1 .4-1 1v6c0 .6.4 1 1 1zm18 2H3c-.6 0-1 .4-1 1s.4 1 1 1h18c.6 0 1-.4 1-1s-.4-1-1-1zm-8 4H3c-.6 0-1 .4-1 1s.4 1 1 1h10c.6 0 1-.4 1-1s-.4-1-1-1z"/></svg>

<svg xmlns="http://www.w3.org/2000/svg" enable-background="new 0 0 24 24" viewBox="0 0 24 24"><path d="M13,8h8c0.6,0,1-0.4,1-1s-0.4-1-1-1h-8c-0.6,0-1,0.4-1,1S12.4,8,13,8z M21,10h-8c-0.6,0-1,0.4-1,1s0.4,1,1,1h8c0.6,0,1-0.4,1-1S21.6,10,21,10z M3,12h6c0.6,0,1-0.4,1-1V5c0-0.6-0.4-1-1-1H3C2.4,4,2,4.4,2,5v6C2,11.6,2.4,12,3,12z M21,14H3c-0.6,0-1,0.4-1,1s0.4,1,1,1h18c0.6,0,1-0.4,1-1S21.6,14,21,14z M13,18H3c-0.6,0-1,0.4-1,1s0.4,1,1,1h10c0.6,0,1-0.4,1-1S13.6,18,13,18z"/></svg>
